icons/solidity.svg

<svg viewBox="0 0 18.04 28" xmlns="http://www.w3.org/2000/svg"><path d="m13.5 0-4.5 8h-9l4.5-8z" opacity=".45"/><path d="m9 8h9l-4.5-8h-9z" opacity=".6"/><path d="m4.5 16 4.5-8-4.5-8-4.5 8z" opacity=".8"/><path d="m4.54 28 4.46-8h9l-4.5 8h-9" opacity=".45"/><path d="m9 20h-9l4.5 8h9z" opacity=".6"/><path d="m13.54 12-4.54 8 4.5 8 4.5-8z" opacity=".8"/></svg>

<svg xmlns="http://www.w3.org/2000/svg" viewBox="0 0 18.04 28"><defs><style>.cls-1{opacity:.45}.cls-1,.cls-2,.cls-3{isolation:isolate}.cls-2{opacity:.6}.cls-3{opacity:.8}</style></defs><g id="Calque_2" data-name="Calque 2"><g id="Calque_1-2" data-name="Calque 1"><path class="cls-1" d="M13.5 0L9 8H0l4.5-8h9"/><path class="cls-2" d="M9 8h9l-4.5-8h-9z"/><path class="cls-3" d="M4.5 16L9 8 4.5 0 0 8z"/><path class="cls-1" d="M4.54 28L9 20h9l-4.5 8h-9"/><path class="cls-2" d="M9 20H0l4.5 8h9z"/><path class="cls-3" d="M13.54 12L9 20l4.5 8 4.5-8z"/></g></g></svg>
